img/icons/status/warning.svg

<svg width="19" height="18" viewBox="0 0 19 18" fill="none" xmlns="http://www.w3.org/2000/svg">
<path d="M5.34283 3.78217C5.04994 3.48928 4.57506 3.48928 4.28217 3.78217C3.98928 4.07506 3.98928 4.54994 4.28217 4.84283L5.34283 3.78217ZM13.6572 14.2178C13.9501 14.5107 14.4249 14.5107 14.7178 14.2178C15.0107 13.9249 15.0107 13.4501 14.7178 13.1572L13.6572 14.2178ZM9.5 15C6.18629 15 3.5 12.3137 3.5 9H2C2 13.1421 5.35786 16.5 9.5 16.5V15ZM3.5 9C3.5 5.68629 6.18629 3 9.5 3V1.5C5.35786 1.5 2 4.85786 2 9H3.5ZM9.5 3C12.8137 3 15.5 5.68629 15.5 9H17C17 4.85786 13.6421 1.5 9.5 1.5V3ZM15.5 9C15.5 12.3137 12.8137 15 9.5 15V16.5C13.6421 16.5 17 13.1421 17 9H15.5ZM4.28217 4.84283L13.6572 14.2178L14.7178 13.1572L5.34283 3.78217L4.28217 4.84283Z" fill="#F56311"/>
</svg>

<svg width="19" height="18" fill="none" xmlns="http://www.w3.org/2000/svg"><path d="M5.343 3.782a.75.75 0 0 0-1.06 1.06l1.06-1.06Zm8.314 10.436a.75.75 0 1 0 1.06-1.06l-1.06 1.06ZM9.5 15a6 6 0 0 1-6-6H2a7.5 7.5 0 0 0 7.5 7.5V15Zm-6-6a6 6 0 0 1 6-6V1.5A7.5 7.5 0 0 0 2 9h1.5Zm6-6a6 6 0 0 1 6 6H17a7.5 7.5 0 0 0-7.5-7.5V3Zm6 6a6 6 0 0 1-6 6v1.5A7.5 7.5 0 0 0 17 9h-1.5ZM4.282 4.843l9.375 9.375 1.06-1.06-9.374-9.376-1.06 1.06Z" fill="#F56311"/></svg>
